remix/System/apps-fill.svg

<svg viewBox="0 0 24 24" fill="currentColor" xmlns="http://www.w3.org/2000/svg"><path d="M6.75 2.5C9.09721 2.5 11 4.40279 11 6.75V11H6.75C4.40279 11 2.5 9.09721 2.5 6.75C2.5 4.40279 4.40279 2.5 6.75 2.5ZM6.75 13H11V17.25C11 19.5972 9.09721 21.5 6.75 21.5C4.40279 21.5 2.5 19.5972 2.5 17.25C2.5 14.9028 4.40279 13 6.75 13ZM17.25 2.5C19.5972 2.5 21.5 4.40279 21.5 6.75C21.5 9.09721 19.5972 11 17.25 11H13V6.75C13 4.40279 14.9028 2.5 17.25 2.5ZM13 13H17.25C19.5972 13 21.5 14.9028 21.5 17.25C21.5 19.5972 19.5972 21.5 17.25 21.5C14.9028 21.5 13 19.5972 13 17.25V13Z"/></svg>

<svg viewBox="0 0 24 24" xmlns="http://www.w3.org/2000/svg"><path fill="none" d="M0 0h24v24H0Z"/><path d="M6.75 2.5v0C9.09 2.5 11 4.4 11 6.75V11H6.75v0C4.4 11 2.5 9.09 2.5 6.75 2.5 4.4 4.4 2.5 6.75 2.5Zm0 10.5H11v4.25 0c0 2.34-1.91 4.25-4.25 4.25 -2.35 0-4.25-1.91-4.25-4.25C2.5 14.9 4.4 13 6.75 13Zm10.5-10.5v0c2.34 0 4.25 1.9 4.25 4.25 0 2.34-1.91 4.25-4.25 4.25H13V6.75v0c0-2.35 1.9-4.25 4.25-4.25ZM13 13h4.25v0c2.34 0 4.25 1.9 4.25 4.25 0 2.34-1.91 4.25-4.25 4.25 -2.35 0-4.25-1.91-4.25-4.25V13Z"/></svg>
